X: 8497
T: Cream Pot, The
R: jig
M: 6/8
K: Gmajor
D|:G2c B2c|dBd efg|G2c B2c|dBG AFD|
E2C CEG|F2D D2c|(B/c/d)B cAF|1 (G3G2)D:|2 (G3G2)B||
|:d2g f2g|afd e^cA|fga B^cd|efd ^cBA|
afa geg|fdg e^cA|Bgf ed^c|d3 dcB|
~c3 cgc|~B3 BgB|ABA ABc|dBG AFD|
E2C CEG|F2D D2c|(B/c/d)B cAF|1 (G3G2)B:|2 G3G3||

